X:49
%
T:August with seven winds
C:copyright (c) 2002 R. S. Doiel, all rights reserved
L:1/8
M:7/8
Q:1/4=60
K:D treble
"A" aee "A" aa "G" gf | "A" aa "G" fg "A" aee | "A" AEE "A" AA "G" GF | "A" AA "G" FG "A" AEE |
"A" aee "A" aa "G"gf | "A" aa "G" fg "A" aee | "A" AEE "A" AA "G" GF | "A" AA "G" FG "A" AEE "fine" ||
"Em" afge gfe | "Em" afge efg | "A" aa "G" gg "F" ffe | "A" aa "G" gg "Em" efg |
"Em" afge gfe | "Em" afge efg | "A" aa "G" gg "F" ffe | "A" aa "G" gg "Em" gfe ||
"G" agg agge | "G" agg aggf | "G" gg "A" aa "F" ffe | "A" aa "G" gg "Em" feg |
"Em" afge gfe | "Em" afge efg | "A" aa "G" gg "F" ffe | "A" aa "G" gg "Em" gfe "DC al fine" |]

